icons/svg/pokeball.svg

﻿<?xml version="1.0" encoding="utf-8"?>
<!DOCTYPE svg PUBLIC "-//W3C//DTD SVG 1.1//EN" "http://www.w3.org/Graphics/SVG/1.1/DTD/svg11.dtd">
<svg xmlns="http://www.w3.org/2000/svg" xmlns:xlink="http://www.w3.org/1999/xlink" version="1.1" baseProfile="full" width="24" height="24" viewBox="0 0 24.00 24.00" enable-background="new 0 0 24.00 24.00" xml:space="preserve">
	<path fill="#000000" fill-opacity="1" stroke-width="0.2" stroke-linejoin="round" d="M 12,2C 17.5228,2 22,6.47716 22,12C 22,17.5228 17.5228,22 12,22C 6.47715,22 2,17.5228 2,12C 2,6.47716 6.47715,2 12,2 Z M 12,4C 7.92038,4 4.55399,7.05369 4.06189,11L 8.12601,11C 8.57006,9.27478 10.1362,8 12,8C 13.8638,8 15.4299,9.27478 15.874,11L 19.9381,11C 19.446,7.05369 16.0796,4 12,4 Z M 12,20C 16.0796,20 19.446,16.9463 19.9381,13L 15.874,13C 15.4299,14.7252 13.8638,16 12,16C 10.1362,16 8.57006,14.7252 8.12601,13L 4.06189,13C 4.55399,16.9463 7.92038,20 12,20 Z M 12,10C 10.8954,10 10,10.8954 10,12C 10,13.1046 10.8954,14 12,14C 13.1046,14 14,13.1046 14,12C 14,10.8954 13.1046,10 12,10 Z "/>
</svg>

<svg xmlns="http://www.w3.org/2000/svg" version="1.1" baseProfile="full" width="24" height="24" viewBox="0 0 24.00 24.00" xml:space="preserve"><path fill="#000" fill-opacity="1" stroke-width=".2" stroke-linejoin="round" d="M12 2c5.523 0 10 4.477 10 10s-4.477 10-10 10S2 17.523 2 12 6.477 2 12 2zm0 2c-4.08 0-7.446 3.054-7.938 7h4.064C8.57 9.275 10.136 8 12 8c1.864 0 3.43 1.275 3.874 3h4.064C19.446 7.054 16.08 4 12 4zm0 16c4.08 0 7.446-3.054 7.938-7h-4.064c-.444 1.725-2.01 3-3.874 3-1.864 0-3.43-1.275-3.874-3H4.062c.492 3.946 3.858 7 7.938 7zm0-10c-1.105 0-2 .895-2 2s.895 2 2 2 2-.895 2-2-.895-2-2-2z"/></svg>
